public/assets/techs/kubernetes.svg

<svg width="20" height="20" viewBox="0 0 20 20" fill="none" xmlns="http://www.w3.org/2000/svg">
<path d="M10 0.910935C9.7909 0.911009 9.582 0.957525 9.38907 1.05078L3.2047 4.03672C2.82 4.22235 2.54027 4.57398 2.44532 4.99062L0.917196 11.7039C0.822764 12.1196 0.922281 12.5567 1.18751 12.8906L5.46876 18.2734C5.73524 18.6086 6.14086 18.8039 6.56876 18.8039H13.4313C13.8592 18.8039 14.2648 18.6086 14.5313 18.2734L18.8125 12.8914V12.8906C19.0777 12.557 19.1779 12.1204 19.0836 11.7047C19.0836 11.7044 19.0836 11.7042 19.0836 11.7039L17.5547 4.99062C17.5547 4.99036 17.5547 4.9901 17.5547 4.98984C17.4598 4.57386 17.1802 4.22273 16.7953 4.03672L10.6117 1.05078C10.6115 1.05052 10.6112 1.05026 10.6109 1.05C10.418 0.95715 10.2091 0.91086 10 0.910935ZM10 1.71093C10.0899 1.71096 10.1795 1.73092 10.2633 1.77109L16.4477 4.75703C16.614 4.83742 16.7339 4.98795 16.775 5.16797L18.3031 11.8812C18.344 12.0613 18.3012 12.2491 18.1867 12.393L13.9055 17.7758C13.7904 17.9206 13.6162 18.0039 13.4313 18.0039H6.56876C6.38386 18.0039 6.21045 17.9206 6.09532 17.7758L1.81407 12.393C1.6993 12.2485 1.65612 12.0607 1.69688 11.8812L3.22579 5.16875C3.26684 4.98859 3.38665 4.83777 3.55235 4.75781C3.55235 4.75755 3.55235 4.75729 3.55235 4.75703L9.73673 1.77109C9.82008 1.7308 9.91015 1.71091 10 1.71093ZM9.99688 3.39375C9.94045 3.39387 9.88313 3.40512 9.82813 3.42812C9.60813 3.52412 9.50401 3.78 9.60001 4C9.69201 4.216 9.72366 4.43165 9.74766 4.64765C9.75566 4.75965 9.76026 4.86778 9.75626 4.97578C9.76826 5.08378 9.71204 5.192 9.63204 5.3C9.54804 5.408 9.54013 5.51622 9.52813 5.62422C8.43045 5.73196 7.44226 6.213 6.68673 6.93593L6.6797 6.93203C6.5877 6.87203 6.50017 6.81181 6.36017 6.80781C6.22817 6.79981 6.10804 6.77609 6.03204 6.69609C5.94804 6.63209 5.86429 6.56037 5.78829 6.48437C5.63229 6.33237 5.48379 6.16815 5.37579 5.96015C5.32379 5.86015 5.22773 5.77975 5.11173 5.74375C4.87973 5.67975 4.63988 5.81175 4.57188 6.04375C4.50388 6.27175 4.63988 6.51568 4.87188 6.57968C5.09588 6.64768 5.28398 6.75968 5.46798 6.87968C5.55598 6.93968 5.64023 7.00378 5.72423 7.07578C5.81623 7.13578 5.86401 7.24778 5.90001 7.37578C5.92641 7.50399 5.99998 7.57816 6.07188 7.65C5.52436 8.4297 5.20001 9.37726 5.20001 10.4C5.20001 10.5692 5.2094 10.7361 5.22657 10.9008C5.13684 10.9322 5.04803 10.9663 4.97188 11.0562C4.88388 11.1562 4.7877 11.2357 4.6797 11.2437C4.5757 11.2717 4.46817 11.2919 4.36017 11.3039C4.14417 11.3319 3.9241 11.348 3.6961 11.3C3.5841 11.28 3.46016 11.3038 3.36016 11.3758C3.16416 11.5118 3.12026 11.7837 3.25626 11.9797C3.39626 12.1757 3.66807 12.2244 3.86407 12.0844C4.05607 11.9484 4.25998 11.8719 4.46798 11.8039C4.57198 11.7719 4.67638 11.7442 4.78438 11.7242C4.88838 11.6882 5.00413 11.7199 5.12813 11.7719C5.23117 11.8251 5.32239 11.8208 5.41251 11.8117C5.7646 12.9532 6.53447 13.9096 7.53985 14.5133C7.5055 14.6094 7.47328 14.7096 7.50391 14.8359C7.52791 14.9679 7.53179 15.0924 7.47579 15.1844C7.43179 15.2844 7.38404 15.3798 7.33204 15.4758C7.22004 15.6598 7.10023 15.8439 6.92423 16.0039C6.84023 16.0799 6.7837 16.1877 6.7797 16.3117C6.7717 16.5517 6.96001 16.7522 7.20001 16.7602C7.44001 16.7682 7.64435 16.5798 7.65235 16.3398C7.65635 16.1038 7.7202 15.8963 7.7922 15.6883C7.8282 15.5883 7.87232 15.4882 7.92032 15.3922C7.95632 15.2882 8.05198 15.2117 8.16798 15.1477C8.28353 15.088 8.3355 15.0037 8.38751 14.9148C8.8924 15.0958 9.43373 15.2 10 15.2C10.576 15.2 11.1261 15.0924 11.6383 14.9055C11.6925 14.9979 11.7481 15.0858 11.8641 15.1477C11.9801 15.2157 12.0757 15.2882 12.1117 15.3922C12.1597 15.4922 12.1999 15.5922 12.2359 15.6922C12.3079 15.9002 12.3678 16.1077 12.3758 16.3437C12.3758 16.4597 12.4236 16.5722 12.5156 16.6562C12.6956 16.8162 12.968 16.8041 13.132 16.6281C13.292 16.4481 13.2799 16.1757 13.1039 16.0117C12.9279 15.8557 12.808 15.6677 12.7 15.4797C12.648 15.3877 12.6003 15.2882 12.5563 15.1922C12.5003 15.0962 12.504 14.9757 12.532 14.8437C12.564 14.7077 12.5281 14.6079 12.4961 14.5039L12.493 14.4937C13.4904 13.884 14.2501 12.9248 14.5945 11.7836L14.6078 11.7844C14.7198 11.7924 14.8277 11.8039 14.9477 11.7359C15.0677 11.6799 15.1882 11.6477 15.2922 11.6797C15.3962 11.6957 15.5038 11.7197 15.6078 11.7477C15.8158 11.8077 16.0243 11.8797 16.2203 12.0117C16.3163 12.0717 16.4363 12.0999 16.5563 12.0719C16.7923 12.0199 16.9403 11.7882 16.8883 11.5562C16.8363 11.3202 16.604 11.1722 16.368 11.2242C16.136 11.2762 15.92 11.2677 15.7 11.2477C15.592 11.2357 15.4877 11.2201 15.3797 11.1961C15.2717 11.1881 15.1764 11.1163 15.0844 11.0203C14.9924 10.9123 14.8884 10.8843 14.7844 10.8523L14.7774 10.85C14.7912 10.7016 14.8 10.5519 14.8 10.4C14.8 9.40828 14.4972 8.48547 13.9797 7.71953C14.0556 7.63968 14.1322 7.56388 14.1602 7.42812C14.1962 7.30012 14.2439 7.18812 14.3359 7.12812C14.4159 7.05612 14.5042 6.99212 14.5922 6.92812C14.7722 6.80812 14.9604 6.69212 15.1844 6.62812C15.2964 6.59612 15.3917 6.51981 15.4477 6.40781C15.5597 6.19581 15.4762 5.93222 15.2602 5.82422C15.0482 5.71222 14.7838 5.79572 14.6758 6.01172C14.5678 6.21972 14.42 6.38393 14.268 6.53593C14.188 6.61193 14.1082 6.68434 14.0242 6.75234C13.9482 6.83234 13.8281 6.85606 13.6961 6.86406C13.5561 6.86806 13.4678 6.93218 13.3758 6.99218C12.613 6.23653 11.599 5.73485 10.4719 5.62422C10.4599 5.51622 10.452 5.408 10.368 5.3C10.288 5.192 10.2318 5.08378 10.2438 4.97578C10.2398 4.86778 10.2444 4.75965 10.2524 4.64765C10.2764 4.43165 10.308 4.216 10.4 4C10.444 3.896 10.448 3.77225 10.4 3.65625C10.328 3.49125 10.1662 3.39337 9.99688 3.39375ZM9.42345 6.44609L9.40391 6.6C9.34791 7.032 9.30798 7.468 9.26798 7.9C9.24398 8.128 9.22382 8.36028 9.20782 8.58828C9.01182 8.44828 8.81582 8.29997 8.60782 8.16797C8.24782 7.92397 7.88763 7.67965 7.51563 7.44765L7.38985 7.36953C7.95244 6.88477 8.65163 6.55721 9.42345 6.44609ZM10.5766 6.44609C11.38 6.56176 12.1035 6.9136 12.6774 7.43125L12.5438 7.51562C12.1758 7.75162 11.8202 7.99584 11.4602 8.23984C11.3162 8.33584 11.1759 8.43593 11.0399 8.53593C10.9319 8.61193 10.7838 8.54372 10.7758 8.41172C10.7638 8.23972 10.748 8.072 10.732 7.9C10.692 7.468 10.6521 7.032 10.5961 6.6L10.5766 6.44609ZM6.63282 8.24297L6.76017 8.37578C7.06417 8.69178 7.37238 8.9959 7.68438 9.3039C7.81638 9.4359 7.94838 9.56037 8.08438 9.68437C8.18038 9.77237 8.14432 9.92806 8.02032 9.96406C7.82432 10.0241 7.62804 10.0797 7.43204 10.1437C7.02004 10.2797 6.6042 10.4082 6.1922 10.5562L6.01095 10.6195C6.00698 10.5463 6.00001 10.4742 6.00001 10.4C6.00001 9.60388 6.23405 8.86529 6.63282 8.24297ZM13.4149 8.32187C13.7836 8.92767 14 9.63696 14 10.4C14 10.4668 13.9931 10.5317 13.9899 10.5977L13.8477 10.5523C13.4317 10.4163 13.0161 10.2997 12.5961 10.1797C12.3241 10.0997 12.0517 10.0282 11.7797 9.96015C11.9837 9.76415 12.1962 9.57187 12.3922 9.37187C12.7002 9.06387 13.0078 8.75593 13.3078 8.43593L13.4149 8.32187ZM9.75235 9.6H10.2399C10.3159 9.6 10.3881 9.63618 10.4281 9.69218L10.7399 10.0844C10.7839 10.1364 10.8003 10.2117 10.7883 10.2797L10.6758 10.7641C10.6638 10.8401 10.6117 10.8999 10.5477 10.9359L10.1 11.1437C10.036 11.1797 9.9562 11.1797 9.8922 11.1437L9.44376 10.9359C9.37976 10.8999 9.32363 10.8401 9.31563 10.7641L9.20391 10.2797C9.19191 10.2117 9.20835 10.1364 9.25235 10.0844L9.56407 9.69218C9.60407 9.63618 9.67635 9.6 9.75235 9.6ZM8.30782 11.5078C8.43182 11.4878 8.53238 11.6121 8.48438 11.7281C8.40838 11.9281 8.33598 12.1242 8.26798 12.3242C8.11998 12.7362 7.97585 13.1442 7.83985 13.5602L7.78516 13.732C7.07325 13.2587 6.52646 12.5621 6.23517 11.7422L6.44767 11.7242C6.88367 11.6842 7.31166 11.6317 7.74766 11.5797C7.93566 11.5597 8.11982 11.5318 8.30782 11.5078ZM11.7641 11.5641C11.9521 11.5841 12.1362 11.6043 12.3242 11.6203C12.7602 11.6603 13.1921 11.7001 13.6281 11.7281L13.7672 11.7359C13.4812 12.5454 12.9464 13.2354 12.2492 13.7094L12.2039 13.5641C12.0719 13.1481 11.9283 12.7361 11.7883 12.3281C11.7243 12.1441 11.6602 11.9644 11.5922 11.7844C11.5482 11.6684 11.6441 11.5481 11.7641 11.5641ZM10.0297 12.3531C10.0867 12.3531 10.1438 12.3818 10.1758 12.4398C10.2638 12.6078 10.3564 12.7719 10.4524 12.9359C10.6684 13.3119 10.8836 13.6922 11.1156 14.0602L11.2102 14.2133C10.8285 14.3338 10.4222 14.4 10 14.4C9.59053 14.4 9.19584 14.3378 8.82423 14.2242L8.92423 14.0641C9.15623 13.6961 9.3761 13.3197 9.5961 12.9437C9.6961 12.7797 9.79238 12.6118 9.88438 12.4398C9.91638 12.3818 9.9727 12.3531 10.0297 12.3531Z" fill="#EEEEEE"/>
</svg>

<svg xmlns="http://www.w3.org/2000/svg" width="20" height="20" fill="none" xmlns:v="https://vecta.io/nano"><path d="M10 .911c-.209 0-.418.047-.611.14L3.205 4.037c-.385.186-.664.537-.759.954L.917 11.704a1.41 1.41 0 0 0 .27 1.187l4.281 5.383c.266.335.672.531 1.1.531h6.863c.428 0 .833-.195 1.1-.53l4.281-5.382h0c.265-.334.365-.77.271-1.186l-1.529-6.714c-.095-.417-.375-.768-.759-.954l-6.184-2.986A1.4 1.4 0 0 0 10 .911zm0 .8a.61.61 0 0 1 .263.06l6.184 2.986c.166.08.286.231.327.411l1.528 6.713c.041.18-.002.368-.116.512l-4.281 5.383c-.115.145-.289.228-.474.228H6.569c-.185 0-.358-.083-.473-.228l-4.281-5.383c-.115-.145-.158-.332-.117-.512l1.529-6.712c.041-.18.161-.331.327-.411l6.184-2.987c.083-.04.173-.06.263-.06zm-.003 1.683a.44.44 0 0 0-.169.034c-.22.096-.324.352-.228.572a2.23 2.23 0 0 1 .148.648l.009.328c.012.108-.044.216-.124.324s-.092.216-.104.324a4.78 4.78 0 0 0-2.841 1.312l-.007-.004c-.092-.06-.18-.12-.32-.124-.132-.008-.252-.032-.328-.112a2.43 2.43 0 0 1-.244-.212c-.156-.152-.304-.316-.412-.524a.45.45 0 0 0-.264-.216.44.44 0 0 0-.54.3c-.068.228.068.472.3.536.224.068.412.18.596.3.088.06.172.124.256.196.092.06.14.172.176.3.026.128.1.202.172.274A4.77 4.77 0 0 0 5.2 10.4c0 .169.009.336.027.501a.53.53 0 0 0-.255.155c-.088.1-.184.179-.292.188-.104.028-.212.048-.32.06a1.95 1.95 0 0 1-.664-.004c-.112-.02-.236.004-.336.076-.196.136-.24.408-.104.604s.412.245.608.105.396-.213.604-.28c.104-.032.208-.06.316-.08.104-.036.22-.004.344.048.103.053.194.049.284.04.352 1.142 1.122 2.098 2.127 2.702-.034.096-.067.196-.036.323.024.132.028.256-.028.348l-.144.291c-.112.184-.232.368-.408.528-.084.076-.141.184-.145.308-.008.24.18.441.42.449a.44.44 0 0 0 .452-.42c.004-.236.068-.444.14-.652.036-.1.08-.2.128-.296.036-.104.132-.181.248-.245s.168-.144.22-.233c.505.181 1.046.285 1.612.285.576 0 1.126-.108 1.638-.294.054.092.11.18.226.242.116.068.212.14.248.245a3.17 3.17 0 0 1 .124.3c.072.208.132.416.14.651a.42.42 0 0 0 .14.313.44.44 0 0 0 .616-.028.44.44 0 0 0-.028-.616c-.176-.156-.296-.344-.404-.532a3.85 3.85 0 0 1-.144-.287c-.056-.096-.052-.216-.024-.348s-.004-.236-.036-.34l-.003-.01c.997-.61 1.757-1.569 2.101-2.71h.013c.112.008.22.02.34-.048.12-.056.241-.088.345-.056.104.016.212.04.316.068.208.06.417.132.613.264.096.06.216.088.336.06.236-.052.384-.284.332-.516s-.284-.384-.52-.332-.448.043-.668.024l-.32-.052c-.108-.008-.203-.08-.295-.176-.092-.108-.196-.136-.3-.168l-.007-.002.023-.45c0-.992-.303-1.915-.82-2.68.076-.08.152-.156.181-.291.036-.128.084-.24.176-.3.08-.072.168-.136.256-.2.18-.12.368-.236.592-.3a.42.42 0 0 0 .263-.22.43.43 0 1 0-.772-.396 2.14 2.14 0 0 1-.408.524l-.244.216c-.076.08-.196.104-.328.112-.14.004-.228.068-.32.128-.763-.756-1.777-1.257-2.904-1.368-.012-.108-.02-.216-.104-.324s-.136-.216-.124-.324a3.02 3.02 0 0 1 .009-.328A2.23 2.23 0 0 1 10.4 4c.044-.104.048-.228 0-.344a.44.44 0 0 0-.403-.263zm-.573 3.052l-.02.154-.136 1.3-.06.688-.6-.42-1.092-.72-.126-.078c.563-.485 1.262-.812 2.034-.923zm1.153 0c.803.116 1.527.468 2.101.985l-.134.084-1.084.724-.42.296c-.108.076-.256.008-.264-.124l-.044-.512-.136-1.3-.02-.154zM6.633 8.243l.127.133.924.928.4.38c.096.088.06.244-.064.28l-.588.18-1.24.412-.181.063L6 10.4c0-.796.234-1.535.633-2.157zm6.782.079A3.98 3.98 0 0 1 14 10.4c0 .067-.007.132-.01.198l-.142-.045-1.252-.373-.816-.22.613-.588.916-.936.107-.114zM9.752 9.6h.488c.076 0 .148.036.188.092l.312.392c.044.052.06.127.048.195l-.112.484c-.012.076-.064.136-.128.172l-.448.208c-.064.036-.144.036-.208 0l-.448-.208c-.064-.036-.12-.096-.128-.172l-.112-.484c-.012-.068.004-.143.048-.195l.312-.392c.04-.056.112-.092.188-.092zm-1.445 1.908c.124-.02.225.104.177.22l-.216.596-.428 1.236-.055.172c-.712-.473-1.259-1.17-1.55-1.99l.212-.018 1.3-.144.56-.072zm3.456.056l.56.056 1.304.108.139.008c-.286.809-.821 1.499-1.518 1.973l-.045-.145-.416-1.236-.196-.544c-.044-.116.052-.236.172-.22zm-1.734.789c.057 0 .114.029.146.087l.277.496.663 1.124.095.153c-.382.12-.788.187-1.21.187-.409 0-.804-.062-1.176-.176l.1-.16.672-1.12.288-.504c.032-.058.088-.087.145-.087z" fill="#326ce5"/></svg>
